X: 21
T:Bumpus of Stretton - Ducklington
S:OY(AB)3A
N:Tune as played for Grand Union Morris
N:www.grandunionmorris.co.uk
M:6/8
L:1/8
Q:100
K:G
"A" D | GFE D2 B | c2 B A2 D | GAB AGE | D3 G2 :||
"B" G | GBd d2 d | ege d2 d | GBd dcd | e2 f g3 |  GBd d2 d | ege d2 d |
  GAB AGE | D3 G2 :||
